symbols/web/format_italic/materialsymbolsrounded/format_italic_gradN25_24px.svg

<svg xmlns="http://www.w3.org/2000/svg" height="24" width="24"><path d="M6.475 19.9q-.6 0-1-.413-.4-.412-.4-.987 0-.6.4-1t1-.4H8.45l4.075-10.2H10.55q-.6 0-1-.413-.4-.412-.4-.987 0-.6.4-1t1-.4h7q.575 0 .988.412.412.413.412.988t-.412.987q-.413.413-.988.413h-1.975l-4.1 10.2h1.975q.575 0 .988.413.412.412.412.987t-.412.987q-.413.413-.988.413Z"/></svg>

<svg xmlns="http://www.w3.org/2000/svg" height="24" width="24"><path d="M6.475 19.9Q5.875 19.9 5.475 19.487Q5.075 19.075 5.075 18.5Q5.075 17.9 5.475 17.5Q5.875 17.1 6.475 17.1H8.45L12.525 6.9H10.55Q9.95 6.9 9.55 6.487Q9.15 6.075 9.15 5.5Q9.15 4.9 9.55 4.5Q9.95 4.1 10.55 4.1H17.55Q18.125 4.1 18.538 4.512Q18.95 4.925 18.95 5.5Q18.95 6.075 18.538 6.487Q18.125 6.9 17.55 6.9H15.575L11.475 17.1H13.45Q14.025 17.1 14.438 17.513Q14.85 17.925 14.85 18.5Q14.85 19.075 14.438 19.487Q14.025 19.9 13.45 19.9Z"/></svg>
